X:129
T:The Fiefers Delight
S:American Veteran Fifer #129
C:To D. Selah Fifer, Chardon O. Co.A.128th O.V.I.
M:6/8
L:1/8
Q:1/8=300
K:G 
%%MIDI program 72
%%MIDI transpose 8
%%MIDI ratio 3 1
f | gfe edB | gfg GAB | gfe edB | dBA A2f |
 gfe edB | gfg a2b | gfg efg | dBG G2 :|
|: B/c/ | d2B d2B | gfg GAB | d2B d2g | ecA ABc |
d2B d2B | gfg a2b | gfe efg | dBG G2 :|



